!!! OTL: Berkowitz295
!!! Chapter: 1
!!! Section: III
!!! Page: 71
!!! Mode: 
!!! Encoder: DJB
**kern
*staff1
*I"Piano
=1-
*clefG2
*k[b-]
*F:
*M3/8
16.a\LL
32g#\JK
8a\
16.dd\L
32a\JJk
=2
4cc\
8b-\
=3
16.g/LL
32f#/JK
8g/
16.cc/L
32g/JJk
=4
4b-\
8a/
=5
8r
16.c/LL
32Bn/JK
8c/J
=6
8b-/L
16.c/L
32Bn/JK
8c/J
=7
8a/L
16.c/L
32Bn/JK
8c/J
=8
4g/
8g#/
=9
16.a\LL
32g#\JK
8a\
24dd\L
24a\
24dd\JJ
=10
!!linebreak:original
4cc\
8b-\
=11
16.g/LL
32f#/K
16g/
16dd/
16cc/
16g/JJ
=12
4b-\
8a/
=13
16.c/LL
32Bn/JK
8c/
8a/J
=14
16.d/LL
32c#/JK
8d/
8b-/J
=15
16.e/LL
32d#/JK
8e/
16dd/L
16cc/JJ
=16
4.f/
==
*-
